images/Logo_white.svg

<svg width="509" height="185" viewBox="0 0 509 185" version="1.1" xmlns="http://www.w3.org/2000/svg" xmlns:xlink="http://www.w3.org/1999/xlink">
<title>Vector</title>
<desc>Created using Figma</desc>
<g id="Canvas" transform="translate(3616 -20617)">
<g id="Vector">
<use xlink:href="#path0_fill" transform="translate(-3616 20617)" fill="#FFFFFF"/>
</g>
</g>
<defs>
<path id="path0_fill" d="M 79.7262 1.04049L 121.6 42.9378C 123.264 44.6025 123.264 47.0997 121.6 48.4871L 79.7262 90.3843C 78.0624 92.0491 75.8439 92.0491 74.1801 90.3843L 32.3065 48.4871C 30.6426 46.8223 30.6426 44.3251 32.3065 42.9378L 74.1801 1.04049C 75.8439 -0.346832 78.3397 -0.346832 79.7262 1.04049ZM 79.7262 118.963L 99.1378 138.386C 100.802 140.051 100.802 142.548 99.1378 143.935L 79.7262 163.358C 78.0624 165.022 75.5666 165.022 74.1801 163.358L 54.7685 143.935C 53.1046 142.27 53.1046 139.773 54.7685 138.386L 74.1801 118.963C 75.8439 117.298 78.3397 117.298 79.7262 118.963ZM 34.8022 73.7364L 62.8104 101.76C 64.4743 103.425 64.4743 105.922 62.8104 107.31L 34.8022 135.334C 33.1384 136.998 30.6426 136.998 29.2561 135.334L 1.24789 107.31C -0.415963 105.645 -0.415963 103.148 1.24789 101.76L 29.2561 73.7364C 30.9199 72.0716 33.4157 72.0716 34.8022 73.7364ZM 339.564 162.803C 339.564 164.468 339.287 166.132 339.01 167.52C 338.455 168.907 337.901 170.294 336.791 171.404C 335.682 172.514 334.296 173.346 332.632 174.179C 330.968 174.734 328.749 175.289 325.976 175.289L 324.59 175.289C 322.649 175.289 320.985 175.289 319.321 175.289C 317.657 175.289 315.716 175.011 314.052 174.734L 314.052 183.89L 304.901 183.89L 304.901 149.484C 307.951 149.207 311.002 148.93 314.052 148.652C 317.38 148.375 320.43 148.375 323.481 148.375L 324.867 148.375C 327.64 148.375 330.136 148.652 332.077 149.484C 334.018 150.039 335.405 151.149 336.514 152.259C 337.623 153.369 338.455 154.756 338.733 156.144C 339.287 157.531 339.287 159.196 339.287 160.861L 339.287 162.803L 339.564 162.803ZM 206.734 183.89L 199.801 173.069C 197.86 173.069 196.196 173.069 194.532 173.069C 192.868 173.069 191.204 172.792 189.54 172.514L 189.54 183.89L 180.389 183.89L 180.389 149.484C 183.44 149.207 186.49 148.93 189.54 148.652C 192.868 148.375 195.919 148.375 198.969 148.375L 200.355 148.375C 203.129 148.375 205.624 148.652 207.566 149.207C 209.507 149.762 210.893 150.594 212.002 151.704C 213.112 152.814 213.944 153.924 214.498 155.311C 215.053 156.699 215.053 158.086 215.053 159.751L 215.053 161.693C 215.053 163.913 214.498 165.855 213.666 167.52C 212.834 169.184 211.171 170.572 209.229 171.682L 216.994 183.89L 206.734 183.89ZM 199.246 156.699C 198.137 156.699 196.473 156.699 194.809 156.699C 193.145 156.699 191.204 156.976 189.54 156.976L 189.54 164.19C 191.204 164.468 192.591 164.468 193.977 164.468C 195.364 164.468 196.473 164.468 197.582 164.468C 199.524 164.468 201.187 164.468 202.297 164.19C 203.406 163.913 204.238 163.635 204.792 163.358C 205.347 163.08 205.624 162.525 205.624 161.97C 205.624 161.415 205.902 160.583 205.902 159.751C 205.902 159.196 205.902 158.918 205.902 158.363C 205.902 157.808 205.624 157.531 205.07 157.253C 204.515 156.976 203.961 156.699 203.129 156.421C 202.297 156.144 200.91 156.144 199.246 156.144L 199.246 156.699ZM 175.952 166.687L 175.952 183.335C 173.457 183.89 170.961 184.168 168.465 184.445C 165.969 184.723 163.196 185 160.7 185L 158.759 185C 154.877 185 151.549 184.445 149.053 183.613C 146.558 182.78 144.339 181.393 142.953 180.006C 141.289 178.618 140.457 176.676 139.625 174.734C 139.07 172.792 138.793 170.572 138.793 168.075L 138.793 165.3C 138.793 163.08 139.07 160.861 139.625 158.641C 140.18 156.699 141.289 154.756 142.953 153.369C 144.616 151.982 146.558 150.594 149.053 149.762C 151.549 148.93 154.877 148.375 158.759 148.375L 160.7 148.375C 163.196 148.375 165.692 148.652 167.91 148.93C 170.406 149.207 172.625 149.762 174.843 150.317L 174.843 158.641C 172.347 158.086 169.852 157.531 167.078 157.253C 164.583 156.976 162.087 156.699 160.423 156.699C 157.373 156.699 154.877 156.976 153.213 157.531C 151.549 158.086 150.44 158.641 149.608 159.473C 148.776 160.306 148.499 161.415 148.221 162.525C 148.221 163.635 147.944 165.022 147.944 166.687C 147.944 168.075 147.944 169.462 148.221 170.849C 148.221 171.959 148.776 173.069 149.608 174.179C 150.44 175.011 151.549 175.844 153.213 176.399C 154.877 176.954 157.373 177.231 160.423 177.231C 162.364 177.231 164.305 177.231 166.801 176.954L 166.801 167.242L 175.952 167.242L 175.952 166.687ZM 218.935 165.3C 218.935 163.08 219.212 160.861 219.767 158.641C 220.322 156.699 221.431 154.756 222.817 153.369C 224.204 151.982 226.145 150.594 228.641 149.762C 231.137 148.93 234.187 148.375 237.792 148.375L 239.733 148.375C 243.338 148.375 246.666 148.93 248.885 149.762C 251.38 150.594 253.321 151.982 254.708 153.369C 256.095 154.756 257.204 156.699 257.758 158.641C 258.313 160.583 258.59 162.803 258.59 165.3L 258.59 168.075C 258.59 170.294 258.313 172.514 257.758 174.734C 257.204 176.676 256.095 178.618 254.708 180.006C 253.321 181.393 251.38 182.78 248.885 183.613C 246.389 184.445 243.338 185 239.733 185L 237.792 185C 234.187 185 230.859 184.445 228.641 183.613C 226.145 182.78 224.204 181.393 222.817 180.006C 221.431 178.618 220.322 176.676 219.767 174.734C 219.212 172.792 218.935 170.572 218.935 168.075L 218.935 165.3ZM 228.086 166.687C 228.086 168.075 228.086 169.184 228.364 170.572C 228.364 171.682 228.918 172.792 229.473 173.901C 230.028 174.734 231.137 175.566 232.523 176.121C 233.91 176.676 236.128 176.954 238.624 176.954C 241.397 176.954 243.338 176.676 244.725 176.121C 246.111 175.566 247.221 174.734 247.775 173.901C 248.33 173.069 248.885 171.959 248.885 170.572C 248.885 169.462 249.162 168.075 249.162 166.687C 249.162 165.3 249.162 164.19 248.885 163.08C 248.885 161.97 248.33 160.861 247.775 160.028C 247.221 159.196 246.111 158.363 244.725 157.808C 243.338 157.253 241.12 156.976 238.624 156.976C 235.851 156.976 233.91 157.253 232.523 157.808C 231.137 158.363 230.028 159.196 229.473 160.028C 228.918 160.861 228.364 161.97 228.364 163.08C 228.364 164.19 228.086 165.577 228.086 166.687ZM 300.187 149.484L 300.187 169.462C 300.187 171.682 299.909 173.624 299.355 175.289C 298.8 177.231 297.968 178.618 296.582 180.283C 295.195 181.67 293.531 182.78 291.313 183.613C 289.094 184.445 286.321 184.723 282.716 184.723L 280.775 184.723C 277.447 184.723 274.397 184.445 272.178 183.613C 269.96 182.78 268.019 181.67 266.91 180.283C 265.523 178.896 264.691 177.231 264.136 175.289C 263.582 173.346 263.305 171.404 263.305 169.462L 263.305 149.484L 272.456 149.484L 272.456 168.075C 272.456 169.184 272.456 170.294 272.733 171.404C 272.733 172.514 273.288 173.346 273.842 174.179C 274.397 175.011 275.229 175.566 276.615 176.121C 277.725 176.676 279.666 176.954 281.884 176.954C 284.103 176.954 286.044 176.676 287.153 176.121C 288.54 175.566 289.372 175.011 289.926 174.179C 290.481 173.346 290.758 172.514 291.035 171.404C 291.035 170.294 291.313 169.462 291.313 168.075L 291.313 149.484L 300.464 149.484L 300.187 149.484ZM 323.203 166.965C 325.144 166.965 326.531 166.965 327.363 166.687C 328.472 166.41 329.027 166.132 329.581 165.577C 330.136 165.022 330.413 164.468 330.413 163.913C 330.413 163.358 330.413 162.525 330.413 161.97C 330.413 161.138 330.413 160.583 330.413 160.028C 330.413 159.473 330.136 158.918 329.581 158.363C 329.027 157.808 328.472 157.531 327.64 157.253C 326.808 156.976 325.422 156.976 323.758 156.976C 322.649 156.976 321.262 156.976 319.598 156.976C 317.934 156.976 315.993 157.253 314.329 157.253L 314.329 166.687C 315.993 166.965 317.38 166.965 318.766 166.965C 320.153 166.965 321.817 166.965 323.203 166.965ZM 458.53 101.76C 458.53 98.4308 459.084 95.1012 459.916 92.0491C 460.748 88.997 462.135 86.4998 464.353 84.0026C 466.572 81.7829 469.345 79.8406 472.95 78.7308C 476.555 77.3435 480.992 76.7885 486.538 76.7885L 489.311 76.7885C 492.916 76.7885 496.244 77.066 499.294 77.3435C 502.622 77.8984 505.672 78.4533 509 79.2857L 509 91.7717C 507.336 91.2167 505.395 90.9393 503.454 90.3843C 501.513 90.1069 499.849 89.8294 498.185 89.5519C 496.521 89.2745 494.857 89.2745 493.193 88.997C 491.53 88.997 490.143 88.7195 488.756 88.7195C 484.874 88.7195 481.824 88.997 479.605 89.8294C 477.387 90.6618 475.723 91.4942 474.891 92.8815C 473.782 94.2688 473.227 95.6562 473.227 97.5984C 472.95 99.5407 472.95 101.483 472.95 103.703C 472.95 105.922 472.95 107.865 473.227 109.807C 473.505 111.749 474.059 113.136 474.891 114.524C 476 115.911 477.387 117.021 479.605 117.576C 481.824 118.408 484.874 118.686 488.756 118.686C 490.143 118.686 491.53 118.686 493.193 118.408C 494.857 118.408 496.521 118.131 498.185 117.853C 499.849 117.576 501.79 117.298 503.454 117.021C 505.395 116.744 507.059 116.189 509 115.634L 509 128.12C 505.95 128.952 502.622 129.507 499.294 129.784C 495.967 130.339 492.639 130.339 489.311 130.339L 486.538 130.339C 480.992 130.339 476.555 129.784 472.95 128.397C 469.345 127.01 466.572 125.345 464.353 123.125C 462.135 120.906 460.748 118.131 459.916 115.079C 459.084 112.027 458.53 108.697 458.53 105.367L 458.53 101.483L 458.53 101.76ZM 134.911 101.76C 134.911 98.4308 135.465 95.1012 136.297 92.0491C 137.129 88.997 138.516 86.4998 140.734 84.0026C 142.953 81.7829 145.726 79.8406 149.331 78.7308C 152.936 77.3435 157.373 76.7885 162.919 76.7885L 165.692 76.7885C 169.297 76.7885 172.625 77.066 175.675 77.3435C 179.003 77.8984 182.053 78.4533 185.381 79.2857L 185.381 91.7717C 183.717 91.2167 181.776 90.9393 179.835 90.3843C 177.893 90.1069 176.23 89.8294 174.566 89.5519C 172.902 89.2745 171.238 89.2745 169.574 88.997C 167.91 88.997 166.524 88.7195 165.137 88.7195C 161.255 88.7195 158.205 88.997 155.986 89.8294C 153.768 90.6618 152.104 91.4942 151.272 92.8815C 150.163 94.2688 149.608 95.6562 149.608 97.5984C 149.331 99.5407 149.331 101.483 149.331 103.703C 149.331 105.922 149.331 107.865 149.608 109.807C 149.885 111.749 150.44 113.136 151.272 114.524C 152.381 115.911 153.768 117.021 155.986 117.576C 158.205 118.408 161.255 118.686 165.137 118.686C 166.524 118.686 167.91 118.686 169.574 118.408C 171.238 118.408 172.902 118.131 174.566 117.853C 176.23 117.576 178.171 117.298 179.835 117.021C 181.776 116.744 183.44 116.189 185.381 115.634L 185.381 128.12C 182.33 128.952 179.003 129.507 175.675 129.784C 172.347 130.339 169.02 130.339 165.692 130.339L 162.919 130.339C 157.373 130.339 152.936 129.784 149.331 128.397C 145.726 127.01 142.953 125.345 140.734 123.125C 138.516 120.906 137.129 118.131 136.297 115.079C 135.465 112.027 134.911 108.697 134.911 105.367L 134.911 101.483L 134.911 101.76ZM 241.12 90.3843L 205.902 90.3843L 205.902 98.1534L 233.633 98.1534L 233.633 110.362L 205.902 110.362L 205.902 117.298L 241.12 117.298L 241.12 129.507L 192.036 129.507L 192.036 78.1759L 241.12 78.1759L 241.12 90.3843ZM 287.153 129.507L 276.893 113.414C 274.12 113.414 271.347 113.414 268.851 113.414C 266.355 113.414 263.859 113.136 261.363 112.859L 261.363 129.507L 247.498 129.507L 247.498 78.4533C 251.935 77.8984 256.649 77.6209 261.363 77.3435C 266.078 77.066 271.069 77.066 275.506 77.066L 277.725 77.066C 281.884 77.066 285.489 77.6209 288.262 78.4533C 291.035 79.2857 293.254 80.673 294.918 82.0604C 296.582 83.4477 297.691 85.39 298.523 87.3322C 299.077 89.2745 299.632 91.4942 299.632 93.7139L 299.632 96.766C 299.632 100.096 299.077 102.87 297.691 105.367C 296.304 107.865 294.086 110.084 290.758 111.472L 302.128 129.507L 286.876 129.507L 287.153 129.507ZM 275.783 88.7195C 274.12 88.7195 272.594 88.7889 269.128 88.9276C 265.662 89.0664 263.859 89.2051 261.363 89.4826L 261.363 100.651C 263.859 100.928 266.078 101.205 268.296 101.205C 270.515 101.205 272.178 101.205 273.565 101.205C 276.615 101.205 279.111 100.928 280.775 100.651C 282.439 100.373 283.825 99.8181 284.38 99.2632C 285.212 98.7083 285.767 97.8759 285.767 97.0435C 286.044 96.2111 286.044 95.1012 286.044 93.9914C 286.044 93.4364 286.044 92.604 285.767 92.0491C 285.767 91.4942 285.212 90.9393 284.657 90.3843C 284.103 89.8294 282.993 89.5519 281.607 89.2745C 280.22 88.997 278.279 88.7195 275.783 88.7195ZM 304.069 129.507L 328.195 78.1759L 342.06 78.1759L 366.463 129.507L 352.598 129.507L 348.161 119.518L 322.371 119.518L 317.934 129.507L 304.069 129.507ZM 342.892 108.142L 335.127 90.6618L 327.363 108.142L 342.892 108.142ZM 396.69 119.241L 382.27 98.9858L 382.27 129.784L 368.405 129.784L 368.405 78.4533L 382.27 78.4533L 400.295 104.813L 418.32 78.4533L 432.186 78.4533L 432.186 129.784L 418.32 129.784L 418.32 98.9858L 403.9 119.241L 396.967 119.241L 396.69 119.241ZM 452.429 78.4533L 452.429 129.784L 438.564 129.784L 438.564 78.4533L 452.429 78.4533Z"/>
</defs>
</svg>

<svg width="509" height="185" xmlns="http://www.w3.org/2000/svg" xmlns:xlink="http://www.w3.org/1999/xlink"><use xlink:href="#path0_fill" fill="#FFF"/><defs><path id="path0_fill" d="M79.726 1.04L121.6 42.938c1.664 1.664 1.664 4.162 0 5.55L79.726 90.383c-1.664 1.665-3.882 1.665-5.546 0L32.306 48.487c-1.663-1.665-1.663-4.162 0-5.55L74.18 1.04c1.664-1.387 4.16-1.387 5.546 0zm0 117.923l19.412 19.423c1.664 1.665 1.664 4.162 0 5.549l-19.412 19.423c-1.664 1.664-4.16 1.664-5.546 0l-19.412-19.423c-1.663-1.665-1.663-4.162 0-5.549l19.412-19.423c1.664-1.665 4.16-1.665 5.546 0zM34.802 73.736L62.81 101.76c1.664 1.665 1.664 4.162 0 5.55l-28.008 28.024c-1.664 1.664-4.16 1.664-5.546 0L1.248 107.31c-1.664-1.665-1.664-4.162 0-5.55l28.008-28.024c1.664-1.664 4.16-1.664 5.546 0zm304.762 89.067c0 1.665-.277 3.329-.554 4.717-.555 1.387-1.109 2.774-2.219 3.884-1.109 1.11-2.495 1.942-4.159 2.775-1.664.555-3.883 1.11-6.656 1.11h-6.655c-1.664 0-3.605-.278-5.269-.555v9.156h-9.151v-34.406l9.151-.832c3.328-.277 6.378-.277 9.429-.277h1.386c2.773 0 5.269.277 7.21 1.109 1.941.555 3.328 1.665 4.437 2.775 1.109 1.11 1.941 2.497 2.219 3.885.554 1.387.554 3.052.554 4.717v1.942h.277zm-132.83 21.087l-6.933-10.821h-5.269c-1.664 0-3.328-.277-4.992-.555v11.376h-9.151v-34.406l9.151-.832c3.328-.277 6.379-.277 9.429-.277h1.386c2.774 0 5.269.277 7.211.832 1.941.555 3.327 1.387 4.436 2.497 1.11 1.11 1.942 2.22 2.496 3.607.555 1.388.555 2.775.555 4.44v1.942c0 2.22-.555 4.162-1.387 5.827-.832 1.664-2.495 3.052-4.437 4.162l7.765 12.208h-10.26zm-7.488-27.191h-4.437c-1.664 0-3.605.277-5.269.277v7.214c1.664.278 3.051.278 4.437.278h3.605c1.942 0 3.605 0 4.715-.278 1.109-.277 1.941-.555 2.495-.832.555-.278.832-.833.832-1.388 0-.555.278-1.387.278-2.219v-1.388c0-.555-.278-.832-.832-1.11-.555-.277-1.109-.554-1.941-.832-.832-.277-2.219-.277-3.883-.277v.555zm-23.294 9.988v16.648c-2.495.555-4.991.833-7.487 1.11-2.496.278-5.269.555-7.765.555h-1.941c-3.882 0-7.21-.555-9.706-1.387-2.495-.833-4.714-2.22-6.1-3.607-1.664-1.388-2.496-3.33-3.328-5.272-.555-1.942-.832-4.162-.832-6.659V165.3c0-2.22.277-4.439.832-6.659.555-1.942 1.664-3.885 3.328-5.272 1.663-1.387 3.605-2.775 6.1-3.607 2.496-.832 5.824-1.387 9.706-1.387h1.941c2.496 0 4.992.277 7.21.555 2.496.277 4.715.832 6.933 1.387v8.324c-2.496-.555-4.991-1.11-7.765-1.388-2.495-.277-4.991-.554-6.655-.554-3.05 0-5.546.277-7.21.832-1.664.555-2.773 1.11-3.605 1.942-.832.833-1.109 1.942-1.387 3.052 0 1.11-.277 2.497-.277 4.162 0 1.388 0 2.775.277 4.162 0 1.11.555 2.22 1.387 3.33a8.93 8.93 0 0 0 3.605 2.22c1.664.555 4.16.832 7.21.832 1.941 0 3.882 0 6.378-.277v-9.712h9.151v-.555zm42.983-1.387c0-2.22.277-4.439.832-6.659.555-1.942 1.664-3.885 3.05-5.272a14.942 14.942 0 0 1 5.824-3.607c2.496-.832 5.546-1.387 9.151-1.387h1.941c3.605 0 6.933.555 9.152 1.387a14.945 14.945 0 0 1 5.823 3.607c1.387 1.387 2.496 3.33 3.05 5.272.555 1.942.832 4.162.832 6.659v2.775c0 2.219-.277 4.439-.832 6.659-.554 1.942-1.663 3.884-3.05 5.272a14.956 14.956 0 0 1-5.823 3.607c-2.496.832-5.547 1.387-9.152 1.387h-1.941c-3.605 0-6.933-.555-9.151-1.387a14.953 14.953 0 0 1-5.824-3.607c-1.386-1.388-2.495-3.33-3.05-5.272-.555-1.942-.832-4.162-.832-6.659V165.3zm9.151 1.387c0 1.388 0 2.497.278 3.885 0 1.11.554 2.22 1.109 3.329.555.833 1.664 1.665 3.05 2.22 1.387.555 3.605.833 6.101.833 2.773 0 4.714-.278 6.101-.833 1.386-.555 2.496-1.387 3.05-2.22.555-.832 1.11-1.942 1.11-3.329 0-1.11.277-2.497.277-3.885 0-1.387 0-2.497-.277-3.607 0-1.11-.555-2.219-1.11-3.052-.554-.832-1.664-1.665-3.05-2.22-1.387-.555-3.605-.832-6.101-.832-2.773 0-4.714.277-6.101.832-1.386.555-2.495 1.388-3.05 2.22-.555.833-1.109 1.942-1.109 3.052s-.278 2.497-.278 3.607zm72.101-17.203v19.978c0 2.22-.278 4.162-.832 5.827-.555 1.942-1.387 3.329-2.773 4.994-1.387 1.387-3.051 2.497-5.269 3.33-2.219.832-4.992 1.11-8.597 1.11h-1.941c-3.328 0-6.378-.278-8.597-1.11-2.218-.833-4.159-1.943-5.268-3.33-1.387-1.387-2.219-3.052-2.774-4.994a21.162 21.162 0 0 1-.831-5.827v-19.978h9.151v18.591c0 1.109 0 2.219.277 3.329 0 1.11.555 1.942 1.109 2.775.555.832 1.387 1.387 2.773 1.942 1.11.555 3.051.833 5.269.833 2.219 0 4.16-.278 5.269-.833 1.387-.555 2.219-1.11 2.773-1.942.555-.833.832-1.665 1.109-2.775 0-1.11.278-1.942.278-3.329v-18.591h9.151-.277zm23.016 17.481c1.941 0 3.328 0 4.16-.278 1.109-.277 1.664-.555 2.218-1.11.555-.555.832-1.109.832-1.664v-3.885c0-.555-.277-1.11-.832-1.665-.554-.555-1.109-.832-1.941-1.11-.832-.277-2.218-.277-3.882-.277h-4.16c-1.664 0-3.605.277-5.269.277v9.434c1.664.278 3.051.278 4.437.278h4.437zM458.53 101.76c0-3.33.554-6.659 1.386-9.71.832-3.053 2.219-5.55 4.437-8.047 2.219-2.22 4.992-4.162 8.597-5.272 3.605-1.387 8.042-1.942 13.588-1.942h2.773c3.605 0 6.933.277 9.983.555 3.328.554 6.378 1.11 9.706 1.942v12.486c-1.664-.555-3.605-.833-5.546-1.388a218.621 218.621 0 0 1-5.269-.832c-1.664-.278-3.328-.278-4.992-.555-1.663 0-3.05-.278-4.437-.278-3.882 0-6.932.278-9.151 1.11-2.218.833-3.882 1.665-4.714 3.053-1.109 1.387-1.664 2.774-1.664 4.716-.277 1.943-.277 3.885-.277 6.105 0 2.219 0 4.162.277 6.104.278 1.942.832 3.329 1.664 4.717 1.109 1.387 2.496 2.497 4.714 3.052 2.219.832 5.269 1.11 9.151 1.11 1.387 0 2.774 0 4.437-.278 1.664 0 3.328-.277 4.992-.555 1.664-.277 3.605-.555 5.269-.832 1.941-.277 3.605-.832 5.546-1.387v12.486c-3.05.832-6.378 1.387-9.706 1.664-3.327.555-6.655.555-9.983.555h-2.773c-5.546 0-9.983-.555-13.588-1.942-3.605-1.387-6.378-3.052-8.597-5.272-2.218-2.219-3.605-4.994-4.437-8.046-.832-3.052-1.386-6.382-1.386-9.712v-3.884.277zm-323.619 0c0-3.33.554-6.659 1.386-9.71.832-3.053 2.219-5.55 4.437-8.047 2.219-2.22 4.992-4.162 8.597-5.272 3.605-1.387 8.042-1.942 13.588-1.942h2.773c3.605 0 6.933.277 9.983.555 3.328.554 6.378 1.11 9.706 1.942v12.486c-1.664-.555-3.605-.833-5.546-1.388-1.942-.277-3.605-.555-5.269-.832-1.664-.278-3.328-.278-4.992-.555-1.664 0-3.05-.278-4.437-.278-3.882 0-6.932.278-9.151 1.11-2.218.833-3.882 1.665-4.714 3.053-1.109 1.387-1.664 2.774-1.664 4.716-.277 1.943-.277 3.885-.277 6.105 0 2.219 0 4.162.277 6.104.277 1.942.832 3.329 1.664 4.717 1.109 1.387 2.496 2.497 4.714 3.052 2.219.832 5.269 1.11 9.151 1.11 1.387 0 2.773 0 4.437-.278 1.664 0 3.328-.277 4.992-.555 1.664-.277 3.605-.555 5.269-.832 1.941-.277 3.605-.832 5.546-1.387v12.486c-3.051.832-6.378 1.387-9.706 1.664-3.328.555-6.655.555-9.983.555h-2.773c-5.546 0-9.983-.555-13.588-1.942-3.605-1.387-6.378-3.052-8.597-5.272-2.218-2.219-3.605-4.994-4.437-8.046-.832-3.052-1.386-6.382-1.386-9.712v-3.884.277zM241.12 90.384h-35.218v7.77h27.731v12.208h-27.731v6.936h35.218v12.209h-49.084V78.176h49.084v12.208zm46.033 39.123l-10.26-16.093h-8.042c-2.496 0-4.992-.278-7.488-.555v16.648h-13.865V78.453c4.437-.555 9.151-.832 13.865-1.11 4.715-.277 9.706-.277 14.143-.277h2.219c4.159 0 7.764.555 10.537 1.387 2.773.833 4.992 2.22 6.656 3.607 1.664 1.388 2.773 3.33 3.605 5.272.554 1.943 1.109 4.162 1.109 6.382v3.052c0 3.33-.555 6.104-1.941 8.601-1.387 2.498-3.605 4.717-6.933 6.105l11.37 18.035h-15.252.277zm-11.37-40.788c-1.663 0-3.189.07-6.655.209-3.466.138-5.269.277-7.765.555v11.168c2.496.277 4.715.554 6.933.554h5.269c3.05 0 5.546-.277 7.21-.554 1.664-.278 3.05-.833 3.605-1.388.832-.555 1.387-1.387 1.387-2.22.277-.832.277-1.942.277-3.052 0-.555 0-1.387-.277-1.942 0-.555-.555-1.11-1.11-1.665-.554-.555-1.664-.832-3.05-1.11-1.387-.277-3.328-.555-5.824-.555zm28.286 40.788l24.126-51.331h13.865l24.403 51.331h-13.865l-4.437-9.989h-25.79l-4.437 9.989h-13.865zm38.823-21.365l-7.765-17.48-7.764 17.48h15.529zm53.798 11.099l-14.42-20.255v30.798h-13.865v-51.33h13.865l18.025 26.359 18.025-26.36h13.866v51.331H418.32V98.986L403.9 119.24h-7.21zm55.739-40.788v51.331h-13.865v-51.33h13.865z"/></defs></svg>
